static/img/svg/barcode.svg

<svg xmlns="http://www.w3.org/2000/svg" width="24" height="24" viewBox="0 0 24 24"><path d="M21,4H3C2.448,4,2,4.448,2,5v14c0,0.552,0.448,1,1,1h18c0.553,0,1-0.448,1-1V5C22,4.448,21.553,4,21,4z M20,18H4V6h16V18z"/><path d="M6 8H8V16H6zM9 8H10V16H9zM17 8H18V16H17zM13 8H16V16H13zM11 8H12V16H11z"/></svg>

<svg xmlns="http://www.w3.org/2000/svg" width="24" height="24" viewBox="0 0 24 24"><path d="M21 4H3a1 1 0 0 0-1 1v14a1 1 0 0 0 1 1h18a1 1 0 0 0 1-1V5a1 1 0 0 0-1-1zm-1 14H4V6h16v12z"/><path d="M6 8h2v8H6zM9 8h1v8H9zM17 8h1v8h-1zM13 8h3v8h-3zM11 8h1v8h-1z"/></svg>
